tsj_gemstone/static/tsj_gemstone/images/outlines/marquise.svg

<svg version="1.1" xmlns="http://www.w3.org/2000/svg" xmlns:xlink="http://www.w3.org/1999/xlink" x="0px" y="0px"
	 viewBox="0 0 216 216" enable-background="new 0 0 216 216" xml:space="preserve">
<path d="M165,108C165,108,165,108,165,108L165,108c1.1-21.6-7.2-43.3-17.4-62c-5.4-9.9-11.7-19.6-19.1-28.2
	C123.3,11.9,116,3.5,108.2,1c0,0-0.1,0-0.1-0.1c0,0-0.1,0-0.1,0c0,0-0.1,0-0.1,0c-0.1,0-0.1,0-0.1,0.1c0,0-0.1,0-0.1,0
	c0,0,0,0-0.1,0c0,0,0,0,0,0C90,9.6,77.4,29.4,68.4,46C58.3,64.7,50,86.4,51,108l0,0c0,0,0,0,0,0c0,0,0,0,0,0c0,0,0,0,0,0l0,0
	c-1.1,22.3,7.8,44.9,18.5,64c5.5,9.8,11.8,19.3,19.4,27.7c4.3,4.7,12.2,14.2,18.9,15.3c0.1,0,0.2,0,0.3,0c6.7-1,14.7-10.6,18.9-15.3
	c7.5-8.4,13.9-17.9,19.4-27.7C157.1,152.9,166,130.4,165,108L165,108C165,108,165,108,165,108C165,108,165,108,165,108z M85.4,193.1
	c-4.7-5.9-9.2-12.7-13.3-19.7l6.1,2.7l17.8,8l-3.7,3.1L85.4,193.1z M130.6,22.9c4.7,5.9,9.2,12.7,13.3,19.7l-8.7-3.9l-15.2-6.8
	l3.2-2.7L130.6,22.9z M144.9,171.2l-2.2,1l-23.2,10.4l7-31.5l18.9-19.2l-0.4,34.4L144.9,171.2z M71.1,171.2l-0.1-4.9l-0.4-34.4
	L89.5,151l7,31.5l-23.2-10.4L71.1,171.2z M71.1,44.8l2.8-1.3l22.6-10.1l-7,31.5L70.6,84.1L71,49.7L71.1,44.8z M107.2,209.6L98.4,184
	l8.8-11.1V209.6z M137.5,123.4c0.5-2.5,0.8-5,1.1-7.5l6.7,13.9l-0.9,0.9l-14.5,14.7C133.5,138.6,136.1,131,137.5,123.4z M112,165.6
	c-1.3,1.3-2.7,2.6-4,3.9c-0.5-0.5-1.1-1-1.7-1.7l-0.3-0.3c-15.6-15.1-26-32.6-27.3-54.8c0.1-1.5,0.2-3,0.5-4.7
	c0.4-1.3-0.4-3.7-0.5-5.1c0.7-11.8,4-23.7,10-34c5.1-8.7,12.2-15.6,19.3-22.7c0.5,0.5,1.1,1,1.7,1.7l0.3,0.3
	c15.6,15.1,26,32.7,27.3,54.8c-0.1,1.5-0.2,3-0.5,4.8c0,0.1,0,0.2,0,0.2c0.3,1.7,0.4,3.2,0.5,4.8C136,133.7,126.7,151.2,112,165.6
	C111.2,166.4,115.5,162.2,112,165.6z M70.7,129.8l6.7-13.9c1,10.2,3.9,20.5,8.7,29.6l-14.5-14.7L70.7,129.8z M78.5,92.6
	c-0.5,2.5-0.8,5-1.1,7.5l-6.7-13.9l0.9-0.9l14.5-14.7C82.5,77.4,79.9,85,78.5,92.6z M92.9,155.7c3.7,4.7,7.8,9,12.1,13.1l0.2,0.2
	c0.7,0.7,1.2,1.2,1.7,1.7l-9,11.4l-6.2-27.9C92.1,154.7,92.5,155.2,92.9,155.7z M145.3,86.2l-6.7,13.9c-1-10.2-3.9-20.5-8.7-29.6
	l14.5,14.7L145.3,86.2z M123.1,60.3c-3.7-4.7-7.8-8.9-12-13.1l-0.3-0.3c-0.7-0.7-1.2-1.2-1.7-1.7l9-11.4l6.2,27.9
	C123.8,61.2,123.5,60.8,123.1,60.3z M105,47.2c-4.7,4.5-9.3,9.3-13.2,14.5l1.3-6L98,33.9l9,11.4C106.4,45.8,105.8,46.4,105,47.2
	C104.3,47.8,105.8,46.4,105,47.2z M108.8,172.9l8.8,11.1l-8.8,25.6V172.9z M109,170.7c5.3-5.3,10.7-10.5,15.2-16.5l-2.9,13.1
	l-3.3,14.8l-3.1-3.8L109,170.7z M144.9,44.8l0.1,4.9l0.4,34.4L126.6,65c0,0,0,0,0,0l-7-31.5l22.6,10.1L144.9,44.8z M108.8,43.1V6.4
	l8.8,25.6L108.8,43.1z M107.2,43.1L98.4,32l8.8-25.6V43.1z M77.2,103.3c0.1,1.5,0.2,3,0.5,4.7c-0.2,1.5-0.4,3.1-0.5,4.7l-7.6,15.8
	L52.8,108l16.8-20.5L77.2,103.3z M138.8,112.7c-0.1-1.5-0.3-3.1-0.5-4.7c0.3-1.7,0.4-3.2,0.5-4.7l7.6-15.8l16.8,20.5l-16.8,20.5
	L138.8,112.7z M85.4,22.9l7.4,6.3l3.2,2.7l-15.2,6.8l-8.7,3.9C76.2,35.6,80.8,28.8,85.4,22.9z M130.6,193.1l-7.4-6.3l-3.2-2.7
	l17.8-8l6.1-2.7C139.8,180.4,135.2,187.2,130.6,193.1z M163.5,105.9l-6.1-7.4l-10.1-12.3l11.8-8.9
	C162.2,87.6,163.6,97.2,163.5,105.9z M158.6,75.7L147,84.5l-0.3-26.9l-0.1-10.2C151.6,56.8,155.7,66.5,158.6,75.7z M129.6,21.6
	l-10.8,9.1l-7.7-22.5l-1.7-5C115.6,6.8,123.1,13.6,129.6,21.6z M106.6,3.3l-1.7,5l-7.7,22.5l-10.8-9.1
	C92.9,13.6,100.4,6.8,106.6,3.3z M69.5,47.4l-0.2,13.3L69,84.5l-11.6-8.8C60.3,66.5,64.4,56.8,69.5,47.4z M56.9,77.3l11.8,8.9
	l-5.1,6.2l-11.1,13.5C52.4,97.2,53.9,87.6,56.9,77.3z M52.5,110.1l11.1,13.5l5.1,6.2l-11.8,8.9C53.9,128.4,52.4,118.8,52.5,110.1z
	 M57.4,140.3l11.6-8.8l0.3,23.6l0.2,13.4C64.4,159.2,60.3,149.5,57.4,140.3z M86.4,194.3l10.8-9.1l9.4,27.5
	C100.4,209.2,92.9,202.4,86.4,194.3z M109.4,212.7l9.4-27.5l10.8,9.1C123.1,202.4,115.6,209.2,109.4,212.7z M146.5,168.6l0.1-10.4
	l0.3-26.7l11.6,8.8C155.7,149.5,151.6,159.2,146.5,168.6z M159.1,138.7l-11.7-8.9l10.1-12.3l6.1-7.4
	C163.6,118.8,162.2,128.4,159.1,138.7z"/>
</svg>

<?xml version="1.0" encoding="utf-8"?>
<svg x="0px" y="0px" viewBox="0 0 216 216" xmlns="http://www.w3.org/2000/svg">
  <path d="M 108 169.5 C 107.5 169 106.9 168.5 106.3 167.8 L 106 167.5 C 90.4 152.4 80 134.9 78.7 112.7 C 78.8 111.2 78.9 109.7 79.2 108 C 79.6 106.7 78.8 104.3 78.7 102.9 C 79.4 91.1 82.7 79.2 88.7 68.9 C 93.8 60.2 100.9 53.3 108 46.2 C 108.5 46.7 109.1 47.2 109.7 47.9 L 110 48.2 C 125.6 63.3 136 80.9 137.3 103 C 137.2 104.5 137.1 106 136.8 107.8 C 136.8 107.9 136.8 108 136.8 108 C 137.1 109.7 137.2 111.2 137.3 112.8 C 136 133.7 126.7 151.2 112 165.6 C 110.7 166.9 109.3 168.2 108 169.5 Z" style="stroke-width: 0.1; stroke-linejoin: round; stroke: rgb(51, 51, 51); fill: rgb(255, 255, 255);"/>
  <path d="M 159.1 138.7 C 162.2 128.4 163.6 118.8 163.6 110.1 L 157.5 117.5 L 147.4 129.8 Z" style="stroke-width: 0.1; stroke-linejoin: round; stroke: rgb(51, 51, 51); fill: rgb(255, 255, 255);"/>
  <path d="M 98.4 184 L 107.2 172.9 L 107.2 209.6 Z" style="stroke-width: 0.1; stroke-linejoin: round; stroke: rgb(51, 51, 51); fill: rgb(255, 255, 255);"/>
  <path d="M 117.6 184 L 108.8 209.6 L 108.8 172.9 Z" style="stroke-width: 0.1; stroke-linejoin: round; stroke: rgb(51, 51, 51); fill: rgb(255, 255, 255);"/>
  <path d="M 108.8 6.4 L 117.6 32 L 108.8 43.1 Z" style="stroke-width: 0.1; stroke-linejoin: round; stroke: rgb(51, 51, 51); fill: rgb(255, 255, 255);"/>
  <path d="M 98.4 32 L 107.2 6.4 L 107.2 43.1 Z" style="stroke-width: 0.1; stroke-linejoin: round; stroke: rgb(51, 51, 51); fill: rgb(255, 255, 255);"/>
  <path d="M 91.8 61.7 L 93.1 55.7 L 98 33.9 L 107 45.3 C 106.4 45.8 105.8 46.4 105 47.2 C 100.3 51.7 95.7 56.5 91.8 61.7 Z" style="stroke-width: 0.1; stroke-linejoin: round; stroke: rgb(51, 51, 51); fill: rgb(255, 255, 255);"/>
  <path d="M 111.1 47.2 C 110.4 46.5 109.6 45.7 109.1 45.2 L 118.1 33.8 L 124.3 61.7 C 123.8 61.2 123.5 60.8 123.1 60.3 C 119.4 55.6 115.3 51.4 111.1 47.2 Z" style="stroke-width: 0.1; stroke-linejoin: round; stroke: rgb(51, 51, 51); fill: rgb(255, 255, 255);"/>
  <path d="M 124.2 154.2 L 121.3 167.3 L 118 182.1 L 114.9 178.3 L 109 170.7 C 114.3 165.4 119.7 160.2 124.2 154.2 Z" style="stroke-width: 0.1; stroke-linejoin: round; stroke: rgb(51, 51, 51); fill: rgb(255, 255, 255);"/>
  <path d="M 105 168.8 C 105.7 169.5 106.4 170.2 106.9 170.7 L 97.9 182.1 L 91.7 154.2 C 92.1 154.7 92.5 155.2 92.9 155.7 C 96.6 160.4 100.7 164.7 105 168.8 Z" style="stroke-width: 0.1; stroke-linejoin: round; stroke: rgb(51, 51, 51); fill: rgb(255, 255, 255);"/>
  <path d="M 146.6 158.2 L 146.9 131.5 L 158.5 140.3 C 155.7 149.5 151.6 159.2 146.5 168.6 Z" style="stroke-width: 0.1; stroke-linejoin: round; stroke: rgb(51, 51, 51); fill: rgb(255, 255, 255);"/>
  <path d="M 147 84.5 L 146.7 57.6 L 146.6 47.4 C 151.6 56.8 155.7 66.5 158.6 75.7 Z" style="stroke-width: 0.1; stroke-linejoin: round; stroke: rgb(51, 51, 51); fill: rgb(255, 255, 255);"/>
  <path d="M 69 131.5 L 69.3 155.1 L 69.5 168.5 C 64.4 159.2 60.3 149.5 57.4 140.3 Z" style="stroke-width: 0.1; stroke-linejoin: round; stroke: rgb(51, 51, 51); fill: rgb(255, 255, 255);"/>
  <path d="M 69.3 60.7 L 69 84.5 L 57.4 75.7 C 60.3 66.5 64.4 56.8 69.5 47.4 Z" style="stroke-width: 0.1; stroke-linejoin: round; stroke: rgb(51, 51, 51); fill: rgb(255, 255, 255);"/>
  <path d="M 77.4 100.1 L 70.7 86.2 L 71.6 85.3 L 86.1 70.6 C 82.5 77.4 79.9 85 78.5 92.6 C 78 95.1 77.7 97.6 77.4 100.1 Z" style="stroke-width: 0.1; stroke-linejoin: round; stroke: rgb(51, 51, 51); fill: rgb(255, 255, 255);"/>
  <path d="M 138.6 115.9 L 145.3 129.8 L 144.4 130.7 L 129.9 145.4 C 133.5 138.6 136.1 131 137.5 123.4 C 138 120.9 138.3 118.4 138.6 115.9 Z" style="stroke-width: 0.1; stroke-linejoin: round; stroke: rgb(51, 51, 51); fill: rgb(255, 255, 255);"/>
  <path d="M 77.4 115.9 C 78.4 126.1 81.3 136.4 86.1 145.5 L 71.6 130.8 L 70.7 129.8 Z" style="stroke-width: 0.1; stroke-linejoin: round; stroke: rgb(51, 51, 51); fill: rgb(255, 255, 255);"/>
  <path d="M 138.6 100.1 C 137.6 89.9 134.7 79.6 129.9 70.5 L 144.4 85.2 L 145.3 86.2 Z" style="stroke-width: 0.1; stroke-linejoin: round; stroke: rgb(51, 51, 51); fill: rgb(255, 255, 255);"/>
  <path d="M 63.6 123.6 L 68.7 129.8 L 56.9 138.7 C 53.9 128.4 52.4 118.8 52.5 110.1 Z" style="stroke-width: 0.1; stroke-linejoin: round; stroke: rgb(51, 51, 51); fill: rgb(255, 255, 255);"/>
  <path d="M 68.7 86.2 L 63.6 92.4 L 52.5 105.9 C 52.4 97.2 53.9 87.6 56.9 77.3 Z" style="stroke-width: 0.1; stroke-linejoin: round; stroke: rgb(51, 51, 51); fill: rgb(255, 255, 255);"/>
  <path d="M 157.4 98.5 L 147.3 86.2 L 159.1 77.3 C 162.2 87.6 163.6 97.2 163.5 105.9 Z" style="stroke-width: 0.1; stroke-linejoin: round; stroke: rgb(51, 51, 51); fill: rgb(255, 255, 255);"/>
  <path d="M 72.1 173.4 L 78.2 176.1 L 96 184.1 L 92.3 187.2 L 85.4 193.1 C 80.7 187.2 76.2 180.4 72.1 173.4 Z" style="stroke-width: 0.1; stroke-linejoin: round; stroke: rgb(51, 51, 51); fill: rgb(255, 255, 255);"/>
  <path d="M 123.2 186.8 L 120 184.1 L 137.8 176.1 L 143.9 173.4 C 139.8 180.4 135.2 187.2 130.6 193.1 Z" style="stroke-width: 0.1; stroke-linejoin: round; stroke: rgb(51, 51, 51); fill: rgb(255, 255, 255);"/>
  <path d="M 143.9 42.6 L 135.2 38.7 L 120 31.9 L 123.2 29.2 L 130.6 22.9 C 135.3 28.8 139.8 35.6 143.9 42.6 Z" style="stroke-width: 0.1; stroke-linejoin: round; stroke: rgb(51, 51, 51); fill: rgb(255, 255, 255);"/>
  <path d="M 92.8 29.2 L 96 31.9 L 80.8 38.7 L 72.1 42.6 C 76.2 35.6 80.8 28.8 85.4 22.9 Z" style="stroke-width: 0.1; stroke-linejoin: round; stroke: rgb(51, 51, 51); fill: rgb(255, 255, 255);"/>
  <path d="M 104.9 8.3 L 97.2 30.8 L 86.4 21.7 C 92.9 13.6 100.4 6.8 106.6 3.3 Z" style="stroke-width: 0.1; stroke-linejoin: round; stroke: rgb(51, 51, 51); fill: rgb(255, 255, 255);"/>
  <path d="M 118.8 185.2 L 129.6 194.3 C 123.1 202.4 115.6 209.2 109.4 212.7 Z" style="stroke-width: 0.1; stroke-linejoin: round; stroke: rgb(51, 51, 51); fill: rgb(255, 255, 255);"/>
  <path d="M 97.2 185.2 L 106.6 212.7 C 100.4 209.2 92.9 202.4 86.4 194.3 Z" style="stroke-width: 0.1; stroke-linejoin: round; stroke: rgb(51, 51, 51); fill: rgb(255, 255, 255);"/>
  <path d="M 118.8 30.7 L 111.1 8.2 L 109.4 3.2 C 115.6 6.8 123.1 13.6 129.6 21.6 Z" style="stroke-width: 0.1; stroke-linejoin: round; stroke: rgb(51, 51, 51); fill: rgb(255, 255, 255);"/>
  <path d="M 138.3 108 C 138.6 106.3 138.7 104.8 138.8 103.3 L 146.4 87.5 L 163.2 108 L 146.4 128.5 L 138.8 112.7 C 138.7 111.2 138.5 109.6 138.3 108 Z" style="stroke-width: 0.1; stroke-linejoin: round; stroke: rgb(51, 51, 51); fill: rgb(255, 255, 255);"/>
  <path d="M 77.7 108 C 77.5 109.5 77.3 111.1 77.2 112.7 L 69.6 128.5 L 52.8 108 L 69.6 87.5 L 77.2 103.3 C 77.3 104.8 77.4 106.3 77.7 108 Z" style="stroke-width: 0.1; stroke-linejoin: round; stroke: rgb(51, 51, 51); fill: rgb(255, 255, 255);"/>
  <path d="M 145 49.7 L 145.4 84.1 L 126.6 65 L 119.6 33.5 L 142.2 43.6 L 144.9 44.8 Z" style="stroke-width: 0.1; stroke-linejoin: round; stroke: rgb(51, 51, 51); fill: rgb(255, 255, 255);"/>
  <path d="M 71 166.3 L 70.6 131.9 L 89.5 151 L 96.5 182.5 L 73.3 172.1 L 71.1 171.2 Z" style="stroke-width: 0.1; stroke-linejoin: round; stroke: rgb(51, 51, 51); fill: rgb(255, 255, 255);"/>
  <path d="M 142.7 172.2 L 119.5 182.6 L 126.5 151.1 L 145.4 131.9 L 145 166.3 L 144.9 171.2 Z" style="stroke-width: 0.1; stroke-linejoin: round; stroke: rgb(51, 51, 51); fill: rgb(255, 255, 255);"/>
  <path d="M 73.9 43.5 L 96.5 33.4 L 89.5 64.9 L 70.6 84.1 L 71 49.7 L 71.1 44.8 Z" style="stroke-width: 0.1; stroke-linejoin: round; stroke: rgb(51, 51, 51); fill: rgb(255, 255, 255);"/>
</svg>
